X:1
T: Coil-a-Creich Inn, Deeside
C:Alexander Walker
R:Reel
Q: 232
K:Am
M:4/4
L:1/8
|:E|A2 Ac BG DB,|A2 AB ce cA|Bg dB GA BA|GE DB, A,2 A,E|
A2 Ac BG DB,|A2 AB ce cA|Bg dB GA BA|GE DB, A,2 A,c|
e2 cA EA Ac|BG DG B,G GB|e2 cA EA Ac|BG dB A2 Ae|
cA EA CA EA|B,G DG B,G DB,|A,C B,D CE AB|ce E^G A2 A:|
